X:49
T:Bonny Lass of Fishirron. THO5.049
M:C
L:1/8
B:Thompson's Complete Collection of 200 Favourite Dances Vol.5
F:https://www.libraryofdance.org/manuals/1780c-Thompson-Compleat-5.pdf
Z:vmp. Peter Dunk 2024
Q:1/4=130
C:"1786"
K:D
AFdA BdAF|DFAF E/E/E E2|AFAd BGBd|ceAc dd/d/ d2:||
|:fdad fadb|adfd efgb|affa gbeg|faef dd/d/d2|
fdad fadb|adfd efge|dAFA ceAg|faef dd/d/ d2:|
W:
W:Cast off, up again ./.
W:Lead down the middle, up again & cast off ./:
W:Set Cornaers :/.
W:lead outsides :/:

